!!!COM: Mussorgsky, Modest
!!!CDT: 1839/03/21/-1881/03/28/
!!!OPR: Pictures at an Exhibition
!!!OTL: Promenade
!!!OMD: Allegro giusto, nel modo russico; senza allegrezza, ma poco sostenuto
**kern	**kern	**dynam
*staff2	*staff1	*staff1
*clefF4	*clefG2	*clefG2
*k[b-e-]	*k[b-e-]	*k[b-e-]
*B-:	*B-:	*B-:
*M5/4	*M5/4	*M5/4
*MM120	*MM120	*MM120
=1-	=1-	=1-
1rr	4g/	f
.	4f/	.
.	4b-\	.
.	(8cc\L	.
.	8ff\J	.
4ry	4dd\)	.
=2	=2	=2
*M6/4	*M6/4	*M6/4
1.r	(8cc\L	.
.	8ff\J	.
.	4dd\)	.
.	4b-\	.
.	4cc\	.
.	4g/	.
.	4f/	.
=3	=3	=3
*M5/4	*M5/4	*M5/4
4GG/ 4G/	4B-/ 4d/ 4g/	.
4AA/ 4F/	4A/ 4c/ 4f/	.
4GG/ 4G/	4B-/ 4d/ 4b-/	.
*	*^	*
4FF/ 4F/	4c\ 4a\	(8cc/L	.
.	.	8ff/J	.
4DD/ 4D/	4f\ 4a\	4dd/)	.
=4	=4	=4	=4
*M6/4	*M6/4	*M6/4	*M6/4
4FF/ 4F/	4c\ 4a\	(8cc/L	.
.	.	8ff/J	.
4BB-\ 4B-\	4f\ 4b-\	4dd/)	.
*	*v	*v	*
4GG/ 4G/	4d/ 4g/ 4b-/	.
4CC/ 4C/	4en/ 4g/ 4cc/	.
4EEn/ 4En/	4G/ 4c/ 4g/	.
4FF/ 4F/	4A/ 4c/ 4f/	.
=5	=5	=5
*M5/4	*M5/4	*M5/4
1rr	4f/	.
.	4g/	.
.	4d/	.
.	(8f/L	.
.	8g/J	.
4ry	4c/)	.
=6	=6	=6
*M6/4	*M6/4	*M6/4
4r	(8g/L	.
.	8a/J	.
4r	4f/)	.
4FF/ 4F/	4f\ 4ff\	.
4BB-\ 4B-\	4f/ 4dd/	.
*	*^	*
4GG/ 4G/	4f\	(8cc/L	.
.	.	8b-/J	.
*	*v	*v	*
4FF/ 4F/	4f/)	.
=7	=7	=7
*M5/4	*M5/4	*M5/4
1rr	4f/	.
.	4g/	.
.	4d/	.
.	(8f/L	.
.	8g/J	.
4ry	4e-/)	.
=8	=8	=8
*M6/4	*M6/4	*M6/4
4r	(8b-\L	.
.	8cc\J	.
4r	4a-/)	.
4AA-\ 4A-\	4a-\ 4aa-\	.
4D-\ 4d-\	4a-\ 4ff\	.
*	*^	*
4BB-\ 4B-\	4a-\	(8ee-/L	.
.	.	8dd-/J	.
*	*v	*v	*
4AA-\ 4A-\	4a-/)	.
=9	=9	=9
*	*^	*
2GGG-/ 2GG-/	4A-/ 4a-/	2.e-\	.
.	4B-/ 4b-/	.	.
4FFF/ 4FF/	4A-/ 4a-/	.	.
4GGG-/ 4GG-/	8B-/L 8b-/	2.e-\	.
.	8c/ 8cc/	.	.
4GGG-/ 4GG-/	8e-/ 8ee-/	.	.
.	8B-/J 8b-/	.	.
4GG-/ 4G-/	4A-/ 4a-/	.	.
*	*v	*v	*
=10	=10	=10
8FF/L 8F/	8d-/L 8f/ 8a-/ 8dd-/	.
8EE-/J 8E-/	8e-/J 8a-/ 8cc/ 8ee-/	.
4DD-/ 4D-/	8f\L 8a-\ 8dd-\ 8ff\	.
.	8a-\ 8aa-\	.
8EE-/L 8E-/	8g-\ 8b-\ 8ee-\ 8gg-\	.
8FF/J 8F/	8f\J 8a-\ 8dd-\ 8ff\	.
4AA-\ 4A-\	8e-/L 8a-/ 8cc/ 8ee-/	.
.	8g-/ 8gg-/	.
4BB-\ 4B-\	8f/ 8b-/ 8dd-/ 8ff/	.
.	8d-/J 8dd-/	.
4AA-\ 4A-\	4e-/ 4a-/ 4cc/ 4ee-/	.
=11	=11	=11
*M5/4	*M5/4	*M5/4
*	*^	*
2GGG-/ 2GG-/	4A-/ 4a-/	2.e-\	.
.	4B-/ 4b-/	.	.
4FFF/ 4FF/	4A-/ 4a-/	.	.
4GGG-/ 4GG-/	8B-/L 8b-/	[4e-\	.
.	8c/ 8cc/	.	.
8GG-/ 8G-/	8e-/ 8ee-/	8e-\]	.
8r	8B-/J 8b-/	8r	.
*	*v	*v	*
=12	=12	=12
*M6/4	*M6/4	*M6/4
*	*^	*
2BBB-/ 2BB-/	4c/ 4cc/	2.gn\	.
.	4dn/ 4ddn/	.	.
4AAAn/ 4AAn/	4c/ 4cc/	.	.
4BBB-/ 4BB-/	8d/L 8dd/	2.g\	.
.	8f/ 8ff/	.	.
4BBB-/ 4BB-/	8g/ 8gg/	.	.
.	8d/J 8dd/	.	.
4BB-\ 4B-\	4c/ 4cc/	.	.
*	*v	*v	*
=13	=13	=13
8AA\L 8A\	8f\L 8a\ 8cc\ 8ff\	.
8GG\J 8G\	8g\J 8cc\ 8een\ 8gg\	.
4FF/ 4F/	8a\L 8cc\ 8ff\ 8aa\	.
.	8cc\ 8ccc\	.
8GG\L 8G\	8b-\ 8dd\ 8gg\ 8bb-\	.
8AA\J 8A\	8a\J 8cc\ 8ff\ 8aa\	.
4C\ 4c\	8g\L 8cc\ 8ee\ 8gg\	.
.	8b-\ 8bb-\	.
4D\ 4d\	8a\ 8dd\ 8ff\ 8aa\	.
.	8f\J 8ff\	.
4C\ 4c\	4g\ 4cc\ 4ee\ 4gg\	.
=14	=14	=14
*	*^	*
4AA\ 4A\	4a\ 4cc\	8aa/L	.
.	.	8een/J	.
*	*v	*v	*
4BB-\ 4B-\	4f\ 4dd\ 4ff\	.
4FF/ 4F/	4a\ 4cc\ 4aa\	.
4GG/ 4G/	4en/ 4b-/ 4dd/	.
4FF/ 4F/	4a\ 4cc\ 4aa\	.
4GG/ 4G/	4e/ 4b-/ 4dd/	.
=15	=15	=15
*	*^	*
4DD/ 4D/	4f\ 4a\	8ff/L	.
.	.	8cc/J	.
*	*v	*v	*
4GG/ 4G/	4f/ 4b-/ 4dd/	.
4DD/ 4D/	4f\ 4a\ 4ff\	.
4GG/ 4G/	4f/ 4b-/ 4dd/	.
*	*^	*
4DD/ 4D/	4f\ 4a\	8ff/L	.
.	.	8cc/J	.
*	*v	*v	*
4GG/ 4G/	4f/ 4b-/ 4dd/	.
=16	=16	=16
*	*^	*
4CC/ 4C/	4g/ 4cc/	8e-\L	.
.	.	8en\J	.
*	*v	*v	*
4FF/ 4F/	4c/ 4f/ 4a/	.
4GG/ 4G/	4d/ 4f/ 4b-/	.
*	*^	*
4CC/ 4C/	4g/ 4cc/	8e-\L	.
.	.	8en\J	.
*	*v	*v	*
4FF/ 4F/	4c/ 4f/ 4a/	.
*	*^	*
4GG/ 4G/	4d\ 4f\	8b-/L	.
.	.	8dd/J	.
*	*v	*v	*
=17	=17	=17
4CC/ 4C/	4en/ 4g/ 4cc/	.
4FF/	4c/ 4d/ 4f/ 4a/	.
4CC/ 4C/	4e/ 4g/ 4cc/	.
4FFF/ 4FF/	4f\ 4ff\	.
4GGG/ 4GG/	8e-/L 8g/ 8b-/ 8ee-/	.
.	8d/ 8dd/	.
8AAA/L 8AA/	8c/ 8f/ 8a/ 8cc/	.
8BBB-/J 8BB-/	8d/J 8f/ 8b-/	.
=18	=18	=18
4AAA/ 4AA/	4c/ 4f/ 4cc/	.
4BBB-/ 4BB-/	4d/ 4f/ 4dd/	.
4AAA/ 4AA/	4f\ 4a\ 4cc\ 4ff\	.
4GGG/ 4GG/	8g\L 8b-\ 8ee-\ 8gg\	.
.	8b-\J 8bb-\	.
4FFF/ 4FF/	4f\ 4ff\	.
4GGG/ 4GG/	4g\ 4gg\	.
=19	=19	=19
4FFF/ 4FF/	4f\ 4ff\	.
4GGG/ 4GG/	8e-/L 8g/ 8b-/ 8ee-/	.
.	8d/ 8dd/	.
8AAA/L 8AA/	8c/ 8f/ 8a/ 8cc/	.
8BBB-/J 8BB-/	8d/J 8f/ 8b-/	.
4AAA/ 4AA/	4c/ 4f/ 4cc/	.
4BBB-/ 4BB-/	4d/ 4f/ 4dd/	.
4AAA/ 4AA/	4f\ 4a\ 4cc\ 4ff\	.
=20	=20	=20
4GGG/ 4GG/	8g\L 8b-\ 8ee-\ 8gg\	.
.	8b-\J 8bb-\	.
4FFF/ 4FF/	4f\ 4ff\	.
4GGG/ 4GG/	4g\ 4gg\	.
4FFF/ 4FF/	4f\ 4ff\	.
4G\	4g/	.
4F\	4f/	.
=21	=21	=21
4CC/ 4C/	8g\L 8b-\ 8een\ 8gg\	.
.	8b-\J 8bb-\	.
4FFF/ 4FF/	4f\ 4ff\	.
4GGG/ 4GG/	4g\ 4gg\	.
4FFF/ 4FF/	4f\ 4ff\	.
4EE-/ 4E-/	4B-/ 4e-/ 4g/	.
4FF/ 4F/	4A/ 4c/ 4f/	.
=22	=22	=22
4DD/ 4D/	4B-/ 4f/ 4b-/	.
4CC/ 4C/	8c/L 8f/ 8a/ 8cc/	.
.	8f/J 8ff/	.
4BBB-/ 4BB-/	4d/ 4f/ 4b-/ 4dd/	.
4AAA/ 4AA/	8c/L 8f/ 8a/ 8cc/	.
.	8f/J 8ff/	.
4GGG/ 4GG/	4d/ 4f/ 4b-/ 4dd/	.
4GG/ 4G/	4B-/ 4d/ 4f/ 4b-/	.
=23	=23	=23
4CC/ 4C/	4c/ 4e-/ 4g/ 4cc/	.
4EEn/ 4En/	4G/ 4c/ 4en/ 4g/	.
4FF/ 4F/	4A/ 4c/ 4f/	.
4BBB-/ 4BB-/	4G/ 4d/ 4g/	.
4AAA/ 4AA/	4A/ 4c/ 4f/	.
4GGG/ 4GG/	4B-/ 4f/ 4b-/	.
=24	=24	=24
4FFF/ 4FF/	8c/L 8f/ 8a/ 8cc/	.
.	8f/J 8ff/	.
4BBB-/ 4BB-/	4d/ 4f/ 4b-/ 4dd/	.
4GG/ 4G/	4B-/ 4d/ 4g/ 4b-/	.
4CC/ 4C/	4e-/ 4g/ 4cc/ 4ee-/	.
4FF/ 4F/	4c/ 4f/ 4a/ 4cc/	.
4BB-\ 4B-\	4d/ 4f/ 4b-/	.
==	==	==
*-	*-	*-
!!!END: 2010/02/02/
!!!ONB: MuseScore Opening Example (http://musescore.org)
